;FLAVOR:UltiGCode
;TIME:15690
;MATERIAL:40025
;MATERIAL2:0
;NOZZLE_DIAMETER:0.4
;MINX:33.82
;MINY:33.82
;MINZ:0.27
;MAXX:189.18
;MAXY:189.18
;MAXZ:15.27
;Generated with Cura_SteamEngine 4.13.0
M82 ;absolute extrusion mode
G0 F3000 Y50 ;avoid prime blob
G92 E0
G92 E0
G10
;LAYER_COUNT:71
;LAYER:0
M107
G1 F600 Z1.27
G0 F4500 X36.127 Y36.23 Z1.27
;TYPE:SKIRT
G1 F600 Z0.27
G11
G1 F2100 X36.23 Y36.127 E0.01377
G1 X36.818 Y35.594 E0.08876
G1 X37.457 Y35.124 E0.16372
G1 X38.141 Y34.721 E0.23875
G1 X38.861 Y34.388 E0.31371
G1 X39.611 Y34.13 E0.38866
G1 X40.384 Y33.948 E0.46371
G1 X41.17 Y33.845 E0.53862
G1 X41.798 Y33.82 E0.59801
G1 X181.202 Y33.82 E13.77169
G1 X181.994 Y33.86 E13.84663
G1 X182.779 Y33.979 E13.92166
G1 X183.547 Y34.177 E13.99661
G1 X184.292 Y34.452 E14.07166
G1 X185.005 Y34.799 E14.14659
G1 X185.68 Y35.217 E14.22162
G1 X186.309 Y35.7 E14.29656
G1 X186.77 Y36.127 E14.35594
G1 X186.873 Y36.23 E14.36971
G1 X187.406 Y36.818 E14.4447
G1 X187.876 Y37.457 E14.51966
G1 X188.279 Y38.141 E14.59469
G1 X188.612 Y38.861 E14.66965
G1 X188.87 Y39.611 E14.7446
G1 X189.052 Y40.384 E14.81965
G1 X189.155 Y41.17 E14.89456
G1 X189.18 Y41.798 E14.95395
G1 X189.18 Y181.202 E28.12763
G1 X189.14 Y181.994 E28.20257
G1 X189.021 Y182.779 E28.2776
G1 X188.823 Y183.547 E28.35255
G1 X188.548 Y184.292 E28.4276
G1 X188.201 Y185.005 E28.50253
G1 X187.783 Y185.68 E28.57756
G1 X187.3 Y186.309 E28.6525
G1 X186.873 Y186.77 E28.71188
G1 X186.77 Y186.873 E28.72565
G1 X186.182 Y187.406 E28.80065
G1 X185.543 Y187.876 E28.87561
G1 X184.859 Y188.279 E28.95063
G1 X184.139 Y188.612 E29.02559
G1 X183.389 Y188.87 E29.10055
G1 X182.616 Y189.052 E29.17559
G1 X181.83 Y189.155 E29.2505
G1 X181.202 Y189.18 E29.3099
G1 X41.798 Y189.18 E42.48357
G1 X41.006 Y189.14 E42.55851
G1 X40.221 Y189.021 E42.63354
G1 X39.453 Y188.823 E42.70849
G1 X38.708 Y188.548 E42.78354
G1 X37.995 Y188.201 E42.85847
G1 X37.32 Y187.783 E42.9335
G1 X36.691 Y187.3 E43.00844
G1 X36.23 Y186.873 E43.06782
G1 X36.127 Y186.77 E43.08159
G1 X35.594 Y186.182 E43.15659
G1 X35.124 Y185.543 E43.23155
G1 X34.721 Y184.859 E43.30657
G1 X34.388 Y184.139 E43.38154
G1 X34.13 Y183.389 E43.45649
G1 X33.948 Y182.616 E43.53153
G1 X33.845 Y181.83 E43.60644
G1 X33.82 Y181.202 E43.66584
G1 X33.82 Y41.798 E56.83952
G1 X33.86 Y41.006 E56.91446
G1 X33.979 Y40.221 E56.98949
G1 X34.177 Y39.453 E57.06443
G1 X34.452 Y38.708 E57.13948
G1 X34.799 Y37.995 E57.21441
G1 X35.217 Y37.32 E57.28944
G1 X35.7 Y36.691 E57.36439
G1 X36.127 Y36.23 E57.42377
G0 F4500 X36.477 Y36.374
G1 F2100 X37.053 Y35.855 E57.49704
G1 X37.679 Y35.397 E57.57033
G1 X38.35 Y35.007 E57.64368
G1 X39.056 Y34.687 E57.71693
G1 X39.792 Y34.442 E57.79023
G1 X40.55 Y34.274 E57.8636
G1 X41.32 Y34.185 E57.93685
G1 X41.798 Y34.17 E57.98204
G1 X181.202 Y34.17 E71.15572
G1 X181.977 Y34.21 E71.22906
G1 X182.743 Y34.329 E71.30231
G1 X183.493 Y34.527 E71.37561
G1 X184.219 Y34.801 E71.44895
G1 X184.912 Y35.148 E71.52218
G1 X185.566 Y35.565 E71.59548
G1 X186.174 Y36.047 E71.6688
G1 X186.626 Y36.477 E71.72776
G1 X187.145 Y37.053 E71.80103
G1 X187.603 Y37.679 E71.87433
G1 X187.993 Y38.35 E71.94767
G1 X188.313 Y39.056 E72.02092
G1 X188.558 Y39.792 E72.09422
G1 X188.726 Y40.55 E72.16759
G1 X188.815 Y41.32 E72.24084
G1 X188.83 Y41.798 E72.28603
G1 X188.83 Y181.202 E85.45971
G1 X188.79 Y181.977 E85.53305
G1 X188.671 Y182.743 E85.6063
G1 X188.473 Y183.493 E85.67961
G1 X188.199 Y184.219 E85.75294
G1 X187.852 Y184.912 E85.82618
G1 X187.435 Y185.566 E85.89947
G1 X186.953 Y186.174 E85.97279
G1 X186.523 Y186.626 E86.03175
G1 X185.947 Y187.145 E86.10502
G1 X185.321 Y187.603 E86.17832
G1 X184.65 Y187.993 E86.25166
G1 X183.944 Y188.313 E86.32491
G1 X183.208 Y188.558 E86.39821
G1 X182.45 Y188.726 E86.47158
G1 X181.68 Y188.815 E86.54483
G1 X181.202 Y188.83 E86.59003
G1 X41.798 Y188.83 E99.7637
G1 X41.023 Y188.79 E99.83704
G1 X40.257 Y188.671 E99.91029
G1 X39.507 Y188.473 E99.9836
G1 X38.781 Y188.199 E100.05693
G1 X38.088 Y187.852 E100.13017
G1 X37.434 Y187.435 E100.20346
G1 X36.826 Y186.953 E100.27678
G1 X36.374 Y186.523 E100.33574
G1 X35.855 Y185.947 E100.40901
G1 X35.397 Y185.321 E100.48231
G1 X35.007 Y184.65 E100.55565
G1 X34.687 Y183.944 E100.6289
G1 X34.442 Y183.208 E100.7022
G1 X34.274 Y182.45 E100.77557
G1 X34.185 Y181.68 E100.84882
G1 X34.17 Y181.202 E100.89402
G1 X34.17 Y41.798 E114.06769
G1 X34.21 Y41.023 E114.14103
G1 X34.329 Y40.257 E114.21428
G1 X34.527 Y39.507 E114.28759
G1 X34.801 Y38.781 E114.36092
G1 X35.148 Y38.088 E114.43416
G1 X35.565 Y37.434 E114.50746
G1 X36.047 Y36.826 E114.58078
G1 X36.477 Y36.374 E114.63973
G0 F4500 X36.622 Y36.725
G1 F2100 X36.725 Y36.622 E114.6535
G1 X37.288 Y36.115 E114.72509
G1 X37.901 Y35.671 E114.79662
G1 X38.558 Y35.293 E114.86825
G1 X39.25 Y34.987 E114.93975
G1 X39.972 Y34.756 E115.01139
G1 X40.713 Y34.602 E115.08291
G1 X41.798 Y34.52 E115.18573
G1 X181.202 Y34.52 E128.35941
G1 X181.958 Y34.56 E128.43095
G1 X182.706 Y34.679 E128.50253
G1 X183.437 Y34.877 E128.5741
G1 X184.144 Y35.151 E128.64575
G1 X184.817 Y35.497 E128.71726
G1 X185.45 Y35.913 E128.78884
G1 X186.275 Y36.622 E128.89164
G1 X186.378 Y36.725 E128.9054
G1 X186.885 Y37.288 E128.977
G1 X187.329 Y37.901 E129.04853
G1 X187.707 Y38.558 E129.12016
G1 X188.013 Y39.25 E129.19166
G1 X188.244 Y39.972 E129.2633
G1 X188.398 Y40.713 E129.33482
G1 X188.48 Y41.798 E129.43764
G1 X188.48 Y181.202 E142.61132
G1 X188.44 Y181.958 E142.68286
G1 X188.321 Y182.706 E142.75444
G1 X188.123 Y183.437 E142.826
G1 X187.849 Y184.144 E142.89766
G1 X187.503 Y184.817 E142.96917
G1 X187.087 Y185.45 E143.04075
G1 X186.378 Y186.275 E143.14355
G1 X186.275 Y186.378 E143.15731
G1 X185.712 Y186.885 E143.22891
G1 X185.099 Y187.329 E143.30044
G1 X184.442 Y187.707 E143.37207
G1 X183.75 Y188.013 E143.44357
G1 X183.028 Y188.244 E143.5152
G1 X182.287 Y188.398 E143.58672
G1 X181.202 Y188.48 E143.68955
G1 X41.798 Y188.48 E156.86323
G1 X41.042 Y188.44 E156.93477
G1 X40.294 Y188.321 E157.00634
G1 X39.563 Y188.123 E157.07791
G1 X38.856 Y187.849 E157.14957
G1 X38.183 Y187.503 E157.22108
G1 X37.55 Y187.087 E157.29266
G1 X36.725 Y186.378 E157.39545
G1 X36.622 Y186.275 E157.40922
G1 X36.115 Y185.712 E157.48082
G1 X35.671 Y185.099 E157.55234
G1 X35.293 Y184.442 E157.62397
G1 X34.987 Y183.75 E157.69548
G1 X34.756 Y183.028 E157.76711
G1 X34.602 Y182.287 E157.83863
G1 X34.52 Y181.202 E157.94146
G1 X34.52 Y41.798 E171.11514
G1 X34.56 Y41.042 E171.18668
G1 X34.679 Y40.294 E171.25825
G1 X34.877 Y39.563 E171.32982
G1 X35.151 Y38.856 E171.40147
G1 X35.497 Y38.183 E171.47299
G1 X35.913 Y37.55 E171.54457
G1 X36.622 Y36.725 E171.64736
G0 F4500 X36.869 Y36.972
G1 F2100 X36.972 Y36.869 E171.66113
G1 X37.522 Y36.376 E171.73093
G1 X38.122 Y35.945 E171.80074
G1 X38.765 Y35.581 E171.87056
G1 X39.443 Y35.289 E171.94032
G1 X40.149 Y35.072 E172.01012
G1 X40.875 Y34.933 E172.07997
G1 X41.798 Y34.87 E172.1674
G1 X181.202 Y34.87 E185.34108
G1 X181.94 Y34.91 E185.41092
G1 X182.668 Y35.029 E185.48063
G1 X183.38 Y35.227 E185.55047
G1 X184.066 Y35.5 E185.62024
G1 X184.719 Y35.846 E185.69008
G1 X185.331 Y36.26 E185.7599
G1 X186.028 Y36.869 E185.84737
G1 X186.131 Y36.972 E185.86113
G1 X186.624 Y37.522 E185.93093
G1 X187.055 Y38.122 E186.00074
G1 X187.419 Y38.765 E186.07057
G1 X187.711 Y39.443 E186.14033
G1 X187.928 Y40.149 E186.21013
G1 X188.067 Y40.875 E186.27998
G1 X188.13 Y41.798 E186.36741
G1 X188.13 Y181.202 E199.54108
G1 X188.09 Y181.94 E199.61093
G1 X187.971 Y182.668 E199.68064
G1 X187.773 Y183.38 E199.75047
G1 X187.5 Y184.066 E199.82024
G1 X187.154 Y184.719 E199.89008
G1 X186.74 Y185.331 E199.9599
G1 X186.131 Y186.028 E200.04737
G1 X186.028 Y186.131 E200.06114
G1 X185.478 Y186.624 E200.13094
G1 X184.878 Y187.055 E200.20075
G1 X184.235 Y187.419 E200.27057
G1 X183.557 Y187.711 E200.34033
G1 X182.851 Y187.928 E200.41013
G1 X182.125 Y188.067 E200.47998
G1 X181.202 Y188.13 E200.56741
G1 X41.798 Y188.13 E213.74109
G1 X41.06 Y188.09 E213.81093
G1 X40.332 Y187.971 E213.88064
G1 X39.62 Y187.773 E213.95048
G1 X38.934 Y187.5 E214.02025
G1 X38.281 Y187.154 E214.09008
G1 X37.669 Y186.74 E214.15991
G1 X36.972 Y186.131 E214.24738
G1 X36.869 Y186.028 E214.26114
G1 X36.376 Y185.478 E214.33094
G1 X35.945 Y184.878 E214.40075
G1 X35.581 Y184.235 E214.47058
G1 X35.289 Y183.557 E214.54034
G1 X35.072 Y182.851 E214.61013
G1 X34.933 Y182.125 E214.67999
G1 X34.87 Y181.202 E214.76741
G1 X34.87 Y41.798 E227.94109
G1 X34.91 Y41.06 E228.01094
G1 X35.029 Y40.332 E228.08064
G1 X35.227 Y39.62 E228.15048
G1 X35.5 Y38.934 E228.22025
G1 X35.846 Y38.281 E228.29009
G1 X36.26 Y37.669 E228.35991
G1 X36.869 Y36.972 E228.44738
G0 F4500 X37.116 Y37.219
G1 F2100 X37.219 Y37.116 E228.46115
G1 X37.756 Y36.637 E228.52915
G1 X38.342 Y36.22 E228.59711
G1 X38.971 Y35.87 E228.66514
G1 X39.634 Y35.592 E228.73307
G1 X40.325 Y35.39 E228.80111
G1 X41.033 Y35.265 E228.86905
G1 X41.798 Y35.22 E228.94147
G1 X181.202 Y35.22 E242.11514
G1 X181.92 Y35.26 E242.1831
G1 X182.63 Y35.379 E242.25113
G1 X183.322 Y35.577 E242.31915
G1 X183.987 Y35.85 E242.38708
G1 X184.619 Y36.195 E242.45512
G1 X185.208 Y36.608 E242.5231
G1 X185.781 Y37.116 E242.59547
G1 X185.884 Y37.219 E242.60923
G1 X186.363 Y37.756 E242.67723
G1 X186.78 Y38.342 E242.7452
G1 X187.13 Y38.971 E242.81322
G1 X187.408 Y39.634 E242.88116
G1 X187.61 Y40.325 E242.9492
G1 X187.735 Y41.033 E243.01714
G1 X187.78 Y41.798 E243.08955
G1 X187.78 Y181.202 E256.26323
G1 X187.74 Y181.92 E256.33119
G1 X187.621 Y182.63 E256.39922
G1 X187.423 Y183.322 E256.46724
G1 X187.15 Y183.987 E256.53517
G1 X186.805 Y184.619 E256.60321
G1 X186.392 Y185.208 E256.67119
G1 X185.884 Y185.781 E256.74356
G1 X185.781 Y185.884 E256.75732
G1 X185.244 Y186.363 E256.82532
G1 X184.658 Y186.78 E256.89329
G1 X184.029 Y187.13 E256.96131
G1 X183.366 Y187.408 E257.02925
G1 X182.675 Y187.61 E257.09728
G1 X181.967 Y187.735 E257.16523
G1 X181.202 Y187.78 E257.23764
G1 X41.798 Y187.78 E270.41132
G1 X41.08 Y187.74 E270.47928
G1 X40.37 Y187.621 E270.54731
G1 X39.678 Y187.423 E270.61533
G1 X39.013 Y187.15 E270.68326
G1 X38.381 Y186.805 E270.7513
G1 X37.792 Y186.392 E270.81928
G1 X37.219 Y185.884 E270.89165
G1 X37.116 Y185.781 E270.90541
G1 X36.637 Y185.244 E270.97341
G1 X36.22 Y184.658 E271.04138
G1 X35.87 Y184.029 E271.1094
G1 X35.592 Y183.366 E271.17734
G1 X35.39 Y182.675 E271.24537
G1 X35.265 Y181.967 E271.31331
G1 X35.22 Y181.202 E271.38573
G1 X35.22 Y41.798 E284.55941
G1 X35.26 Y41.08 E284.62737
G1 X35.379 Y40.37 E284.6954
G1 X35.577 Y39.678 E284.76341
G1 X35.85 Y39.013 E284.83135
G1 X36.195 Y38.381 E284.89939
G1 X36.608 Y37.792 E284.96737
G1 X37.116 Y37.219 E285.03973
G0 F4500 X37.364 Y37.467
G1 F2100 X37.467 Y37.364 E285.0535
G1 X37.989 Y36.898 E285.11963
G1 X38.561 Y36.495 E285.18575
G1 X39.175 Y36.16 E285.25185
G1 X39.824 Y35.897 E285.31802
G1 X40.498 Y35.71 E285.38412
G1 X41.189 Y35.6 E285.45024
G1 X41.798 Y35.57 E285.50786
G1 X181.202 Y35.57 E298.68154
G1 X181.901 Y35.61 E298.7477
G1 X182.59 Y35.729 E298.81378
G1 X183.261 Y35.927 E298.87989
G1 X183.906 Y36.199 E298.94604
G1 X184.515 Y36.543 E299.01214
G1 X185.081 Y36.955 E299.07829
G1 X185.533 Y37.364 E299.1359
G1 X185.636 Y37.467 E299.14966
G1 X186.102 Y37.989 E299.21579
G1 X186.505 Y38.561 E299.28191
G1 X186.84 Y39.175 E299.34801
G1 X187.103 Y39.824 E299.41419
G1 X187.29 Y40.498 E299.48028
G1 X187.4 Y41.189 E299.54641
G1 X187.43 Y41.798 E299.60403
G1 X187.43 Y181.202 E312.7777
G1 X187.39 Y181.901 E312.84387
G1 X187.271 Y182.59 E312.90994
G1 X187.073 Y183.261 E312.97605
G1 X186.801 Y183.906 E313.04221
G1 X186.457 Y184.515 E313.1083
G1 X186.045 Y185.081 E313.17446
G1 X185.636 Y185.533 E313.23206
G1 X185.533 Y185.636 E313.24583
G1 X185.011 Y186.102 E313.31196
G1 X184.439 Y186.505 E313.37808
G1 X183.825 Y186.84 E313.44418
G1 X183.176 Y187.103 E313.51035
G1 X182.502 Y187.29 E313.57645
G1 X181.811 Y187.4 E313.64257
G1 X181.202 Y187.43 E313.70019
G1 X41.798 Y187.43 E326.87387
G1 X41.099 Y187.39 E326.94003
G1 X40.41 Y187.271 E327.00611
G1 X39.739 Y187.073 E327.07222
G1 X39.094 Y186.801 E327.13837
G1 X38.485 Y186.457 E327.20447
G1 X37.919 Y186.045 E327.27062
G1 X37.467 Y185.636 E327.32823
G1 X37.364 Y185.533 E327.34199
G1 X36.898 Y185.011 E327.40812
G1 X36.495 Y184.439 E327.47424
G1 X36.16 Y183.825 E327.54034
G1 X35.897 Y183.176 E327.60652
G1 X35.71 Y182.502 E327.67261
G1 X35.6 Y181.811 E327.73874
G1 X35.57 Y181.202 E327.79636
G1 X35.57 Y41.798 E340.97003
G1 X35.61 Y41.099 E341.0362
G1 X35.729 Y40.41 E341.10227
G1 X35.927 Y39.739 E341.16838
G1 X36.199 Y39.094 E341.23454
G1 X36.543 Y38.485 E341.30063
G1 X36.955 Y37.919 E341.36679
G1 X37.364 Y37.467 E341.42439
G0 F4500 X37.714 Y37.611
G1 F2100 X38.222 Y37.16 E341.48859
G1 X38.78 Y36.772 E341.55282
G1 X39.379 Y36.451 E341.61704
G1 X40.011 Y36.203 E341.68119
G1 X40.669 Y36.031 E341.74546
G1 X41.342 Y35.938 E341.80967
G1 X41.798 Y35.92 E341.85279
G1 X181.202 Y35.92 E355.02647
G1 X181.88 Y35.96 E355.09065
G1 X182.549 Y36.079 E355.15487
G1 X183.199 Y36.276 E355.21905
G1 X183.822 Y36.548 E355.28329
G1 X184.408 Y36.892 E355.3475
G1 X184.95 Y37.302 E355.41173
G1 X185.389 Y37.714 E355.46862
G1 X185.84 Y38.222 E355.53282
G1 X186.228 Y38.78 E355.59704
G1 X186.549 Y39.379 E355.66126
G1 X186.797 Y40.011 E355.72542
G1 X186.969 Y40.669 E355.78969
G1 X187.062 Y41.342 E355.85389
G1 X187.08 Y41.798 E355.89702
G1 X187.08 Y181.202 E369.0707
G1 X187.04 Y181.88 E369.13488
G1 X186.921 Y182.549 E369.19909
G1 X186.724 Y183.199 E369.26328
G1 X186.452 Y183.822 E369.32752
G1 X186.108 Y184.408 E369.39173
G1 X185.698 Y184.95 E369.45595
G1 X185.286 Y185.389 E369.51285
G1 X184.778 Y185.84 E369.57704
G1 X184.22 Y186.228 E369.64127
G1 X183.621 Y186.549 E369.70549
G1 X182.989 Y186.797 E369.76965
G1 X182.331 Y186.969 E369.83392
G1 X181.658 Y187.062 E369.89812
G1 X181.202 Y187.08 E369.94124
G1 X41.798 Y187.08 E383.11492
G1 X41.12 Y187.04 E383.17911
G1 X40.451 Y186.921 E383.24332
G1 X39.801 Y186.724 E383.3075
G1 X39.178 Y186.452 E383.37174
G1 X38.592 Y186.108 E383.43596
G1 X38.05 Y185.698 E383.50018
G1 X37.611 Y185.286 E383.55707
G1 X37.16 Y184.778 E383.62127
G1 X36.772 Y184.22 E383.68549
G1 X36.451 Y183.621 E383.74971
G1 X36.203 Y182.989 E383.81387
G1 X36.031 Y182.331 E383.87814
G1 X35.938 Y181.658 E383.94235
G1 X35.92 Y181.202 E383.98547
G1 X35.92 Y41.798 E397.15915
G1 X35.96 Y41.12 E397.22333
G1 X36.079 Y40.451 E397.28754
G1 X36.276 Y39.801 E397.35173
G1 X36.548 Y39.178 E397.41597
G1 X36.892 Y38.592 E397.48018
G1 X37.302 Y38.05 E397.5444
G1 X37.714 Y37.611 E397.6013
G0 F4500 X37.859 Y37.962
G1 F2100 X37.962 Y37.859 E397.61506
G1 X38.455 Y37.422 E397.67732
G1 X38.997 Y37.049 E397.7395
G1 X39.581 Y36.744 E397.80176
G1 X40.197 Y36.512 E397.86396
G1 X40.837 Y36.356 E397.92621
G1 X41.798 Y36.27 E398.01739
G1 X181.202 Y36.27 E411.19107
G1 X181.859 Y36.31 E411.25327
G1 X182.507 Y36.429 E411.31553
G1 X183.135 Y36.626 E411.37773
G1 X183.735 Y36.898 E411.43998
G1 X184.298 Y37.24 E411.50223
G1 X185.038 Y37.859 E411.5934
G1 X185.141 Y37.962 E411.60717
G1 X185.578 Y38.455 E411.66942
G1 X185.951 Y38.997 E411.7316
G1 X186.256 Y39.581 E411.79386
G1 X186.488 Y40.197 E411.85606
G1 X186.644 Y40.837 E411.91831
G1 X186.73 Y41.798 E412.00949
G1 X186.73 Y181.202 E425.18317
G1 X186.69 Y181.859 E425.24537
G1 X186.571 Y182.507 E425.30763
G1 X186.374 Y183.135 E425.36983
G1 X186.102 Y183.735 E425.43208
G1 X185.76 Y184.298 E425.49433
G1 X185.141 Y185.038 E425.5855
G1 X185.038 Y185.141 E425.59927
G1 X184.545 Y185.578 E425.66152
G1 X184.003 Y185.951 E425.7237
G1 X183.419 Y186.256 E425.78596
G1 X182.803 Y186.488 E425.84817
G1 X182.163 Y186.644 E425.91042
G1 X181.202 Y186.73 E426.00159
G1 X41.798 Y186.73 E439.17527
G1 X41.141 Y186.69 E439.23747
G1 X40.493 Y186.571 E439.29973
G1 X39.865 Y186.374 E439.36193
G1 X39.265 Y186.102 E439.42418
G1 X38.702 Y185.76 E439.48644
G1 X37.962 Y185.141 E439.5776
G1 X37.859 Y185.038 E439.59137
G1 X37.422 Y184.545 E439.65363
G1 X37.049 Y184.003 E439.7158
G1 X36.744 Y183.419 E439.77806
G1 X36.512 Y182.803 E439.84027
G1 X36.356 Y182.163 E439.90252
G1 X36.27 Y181.202 E439.9937
G1 X36.27 Y41.798 E453.16737
G1 X36.31 Y41.141 E453.22958
G1 X36.429 Y40.493 E453.29184
G1 X36.626 Y39.865 E453.35403
