;START_OF_HEADER
;HEADER_VERSION:0.1
;FLAVOR:Griffin
;GENERATOR.NAME:Cura_SteamEngine
;GENERATOR.VERSION:4.13.0
;GENERATOR.BUILD_DATE:2022-01-11
;TARGET_MACHINE.NAME:Ultimaker 3
;EXTRUDER_TRAIN.0.INITIAL_TEMPERATURE:210
;EXTRUDER_TRAIN.0.MATERIAL.VOLUME_USED:36709
;EXTRUDER_TRAIN.0.MATERIAL.GUID:506c9f0d-e3aa-4bd4-b2d2-23e2425b1aa9
;EXTRUDER_TRAIN.0.NOZZLE.DIAMETER:0.4
;EXTRUDER_TRAIN.0.NOZZLE.NAME:AA 0.4
;BUILD_PLATE.TYPE:glass
;BUILD_PLATE.INITIAL_TEMPERATURE:60
;PRINT.TIME:8770
;PRINT.GROUPS:1
;PRINT.SIZE.MIN.X:39.807
;PRINT.SIZE.MIN.Y:30.74
;PRINT.SIZE.MIN.Z:0.27
;PRINT.SIZE.MAX.X:193.327
;PRINT.SIZE.MAX.Y:184.26
;PRINT.SIZE.MAX.Z:14.27
;END_OF_HEADER
;Generated with Cura_SteamEngine 4.13.0
T0
M82 ;absolute extrusion mode

G92 E0
M109 S210
G280 S1
G0 Z20.001
G1 F1500 E-6.5
;LAYER_COUNT:36
;LAYER:0
M107
M204 S625
M205 X30 Y30
G1 F600 Z2.27
G0 F4285.7 X191.936 Y181.495 Z2.27
M204 S500
M205 X20 Y20
;TYPE:SKIRT
G1 F600 Z0.27
G1 F1500 E0
G1 F1200 X191.457 Y182.065 E0.01323
G1 X190.92 Y182.58 E0.02646
G1 X190.331 Y183.035 E0.03969
G1 X189.697 Y183.424 E0.05291
G1 X189.024 Y183.743 E0.06615
G1 X188.321 Y183.988 E0.07939
G1 X187.596 Y184.156 E0.09262
G1 X186.857 Y184.245 E0.10585
G1 X186.397 Y184.26 E0.11403
G1 X46.737 Y184.26 E2.59662
G1 X45.994 Y184.22 E2.60985
G1 X45.259 Y184.101 E2.62308
G1 X44.541 Y183.903 E2.63632
G1 X43.849 Y183.63 E2.64955
G1 X43.19 Y183.284 E2.66278
G1 X42.572 Y182.869 E2.67601
G1 X42.002 Y182.39 E2.68924
G1 X41.487 Y181.853 E2.70247
G1 X41.032 Y181.264 E2.7157
G1 X40.643 Y180.63 E2.72892
G1 X40.324 Y179.957 E2.74216
G1 X40.079 Y179.254 E2.7554
G1 X39.911 Y178.529 E2.76862
G1 X39.822 Y177.79 E2.78186
G1 X39.807 Y177.33 E2.79004
G1 X39.807 Y37.67 E5.27263
G1 X39.847 Y36.927 E5.28586
G1 X39.966 Y36.192 E5.29909
G1 X40.164 Y35.474 E5.31233
G1 X40.437 Y34.782 E5.32556
G1 X40.783 Y34.123 E5.33879
G1 X41.198 Y33.505 E5.35202
G1 X41.677 Y32.935 E5.36525
G1 X42.214 Y32.42 E5.37848
G1 X42.803 Y31.965 E5.39171
G1 X43.437 Y31.576 E5.40493
G1 X44.11 Y31.257 E5.41817
G1 X44.813 Y31.012 E5.43141
G1 X45.538 Y30.844 E5.44463
G1 X46.277 Y30.755 E5.45787
G1 X46.737 Y30.74 E5.46605
G1 X186.397 Y30.74 E7.94864
G1 X187.14 Y30.78 E7.96187
G1 X187.875 Y30.899 E7.9751
G1 X188.593 Y31.097 E7.98834
G1 X189.285 Y31.37 E8.00157
G1 X189.944 Y31.716 E8.0148
G1 X190.562 Y32.131 E8.02803
G1 X191.132 Y32.61 E8.04126
G1 X191.647 Y33.147 E8.05449
G1 X192.102 Y33.736 E8.06772
G1 X192.491 Y34.37 E8.08094
G1 X192.81 Y35.043 E8.09418
G1 X193.055 Y35.746 E8.10741
G1 X193.223 Y36.471 E8.12064
G1 X193.312 Y37.21 E8.13388
G1 X193.327 Y37.67 E8.14206
G1 X193.327 Y177.33 E10.62465
G1 X193.287 Y178.073 E10.63788
G1 X193.168 Y178.808 E10.65111
G1 X192.97 Y179.526 E10.66435
G1 X192.697 Y180.218 E10.67757
G1 X192.351 Y180.877 E10.69081
G1 X191.936 Y181.495 E10.70404
M204 S625
M205 X30 Y30
G0 F4285.7 X191.519 Y181.348
M204 S500
M205 X20 Y20
G1 F1200 X191.043 Y181.89 E10.71686
G1 X190.51 Y182.376 E10.72968
G1 X189.926 Y182.8 E10.74251
G1 X189.299 Y183.157 E10.75534
G1 X188.637 Y183.443 E10.76816
G1 X187.947 Y183.653 E10.78098
G1 X187.238 Y183.785 E10.7938
G1 X186.397 Y183.84 E10.80878
G1 X46.737 Y183.84 E13.29137
G1 X46.017 Y183.8 E13.30419
G1 X45.305 Y183.681 E13.31702
G1 X44.611 Y183.483 E13.32985
G1 X43.944 Y183.21 E13.34266
G1 X43.31 Y182.865 E13.35549
G1 X42.719 Y182.452 E13.36831
G1 X42.177 Y181.976 E13.38113
G1 X41.691 Y181.443 E13.39395
G1 X41.267 Y180.859 E13.40678
G1 X40.91 Y180.232 E13.41961
G1 X40.624 Y179.57 E13.43243
G1 X40.414 Y178.88 E13.44525
G1 X40.282 Y178.171 E13.45807
G1 X40.227 Y177.33 E13.47305
G1 X40.227 Y37.67 E15.95564
G1 X40.267 Y36.95 E15.96846
G1 X40.386 Y36.238 E15.98129
G1 X40.584 Y35.544 E15.99412
G1 X40.857 Y34.877 E16.00693
G1 X41.202 Y34.243 E16.01976
G1 X41.615 Y33.652 E16.03258
G1 X42.091 Y33.11 E16.0454
G1 X42.624 Y32.624 E16.05822
G1 X43.208 Y32.2 E16.07105
G1 X43.835 Y31.843 E16.08388
G1 X44.497 Y31.557 E16.0967
G1 X45.187 Y31.347 E16.10952
G1 X45.896 Y31.215 E16.12234
G1 X46.737 Y31.16 E16.13732
G1 X186.397 Y31.16 E18.61991
G1 X187.117 Y31.2 E18.63273
G1 X187.829 Y31.319 E18.64556
G1 X188.523 Y31.517 E18.65839
G1 X189.19 Y31.79 E18.6712
G1 X189.824 Y32.135 E18.68403
G1 X190.415 Y32.548 E18.69685
G1 X190.957 Y33.024 E18.70967
G1 X191.443 Y33.557 E18.72249
G1 X191.867 Y34.141 E18.73532
G1 X192.224 Y34.768 E18.74815
G1 X192.51 Y35.43 E18.76097
G1 X192.72 Y36.12 E18.77379
G1 X192.852 Y36.829 E18.78661
G1 X192.907 Y37.67 E18.80159
G1 X192.907 Y177.33 E21.28418
G1 X192.867 Y178.05 E21.297
G1 X192.748 Y178.762 E21.30983
G1 X192.55 Y179.456 E21.32266
G1 X192.277 Y180.123 E21.33547
G1 X191.932 Y180.757 E21.3483
G1 X191.519 Y181.348 E21.36112
M204 S625
M205 X30 Y30
G0 F4285.7 X191.102 Y181.196
M204 S500
M205 X20 Y20
G1 F1200 X190.629 Y181.709 E21.37352
G1 X190.101 Y182.164 E21.38591
G1 X189.524 Y182.556 E21.39831
G1 X188.905 Y182.879 E21.41072
G1 X188.254 Y183.13 E21.42313
G1 X187.578 Y183.304 E21.43554
G1 X186.887 Y183.4 E21.44794
G1 X186.397 Y183.42 E21.45665
G1 X46.737 Y183.42 E23.93925
G1 X46.04 Y183.38 E23.95166
G1 X45.353 Y183.261 E23.96405
G1 X44.684 Y183.063 E23.97645
G1 X44.041 Y182.791 E23.98886
G1 X43.435 Y182.447 E24.00125
G1 X42.871 Y182.035 E24.01367
G1 X42.358 Y181.562 E24.02607
G1 X41.903 Y181.034 E24.03846
G1 X41.511 Y180.457 E24.05086
G1 X41.188 Y179.838 E24.06327
G1 X40.937 Y179.187 E24.07567
G1 X40.763 Y178.511 E24.08808
G1 X40.667 Y177.82 E24.10048
G1 X40.647 Y177.33 E24.1092
G1 X40.647 Y37.67 E26.59179
G1 X40.687 Y36.973 E26.6042
G1 X40.806 Y36.286 E26.6166
G1 X41.004 Y35.617 E26.629
G1 X41.276 Y34.974 E26.64141
G1 X41.62 Y34.368 E26.6538
G1 X42.032 Y33.804 E26.66621
G1 X42.505 Y33.291 E26.67862
G1 X43.033 Y32.836 E26.69101
G1 X43.61 Y32.444 E26.70341
G1 X44.229 Y32.121 E26.71582
G1 X44.88 Y31.87 E26.72822
G1 X45.556 Y31.696 E26.74063
G1 X46.247 Y31.6 E26.75303
G1 X46.737 Y31.58 E26.76175
G1 X186.397 Y31.58 E29.24434
G1 X187.094 Y31.62 E29.25675
G1 X187.781 Y31.739 E29.26914
G1 X188.45 Y31.937 E29.28155
G1 X189.093 Y32.209 E29.29396
G1 X189.699 Y32.553 E29.30634
G1 X190.263 Y32.965 E29.31876
G1 X190.776 Y33.438 E29.33116
G1 X191.231 Y33.966 E29.34355
G1 X191.623 Y34.543 E29.35595
G1 X191.946 Y35.162 E29.36836
G1 X192.197 Y35.813 E29.38077
G1 X192.371 Y36.489 E29.39317
G1 X192.467 Y37.18 E29.40557
G1 X192.487 Y37.67 E29.41429
G1 X192.487 Y177.33 E31.89689
G1 X192.447 Y178.027 E31.9093
G1 X192.328 Y178.714 E31.92169
G1 X192.13 Y179.383 E31.93409
G1 X191.858 Y180.026 E31.9465
G1 X191.514 Y180.632 E31.95889
G1 X191.102 Y181.196 E31.9713
M204 S625
M205 X30 Y30
G0 F4285.7 X191.096 Y180.503
M204 S500
M205 X20 Y20
G1 F1200 X190.687 Y181.038 E31.98328
G1 X190.217 Y181.52 E31.99524
G1 X189.693 Y181.943 E32.00721
G1 X189.123 Y182.302 E32.01919
G1 X188.515 Y182.59 E32.03115
G1 X187.877 Y182.804 E32.04311
G1 X187.217 Y182.94 E32.05509
G1 X186.397 Y183 E32.0697
G1 X46.737 Y183 E34.5523
G1 X46.065 Y182.96 E34.56426
G1 X45.402 Y182.841 E34.57624
G1 X44.759 Y182.644 E34.58819
G1 X44.143 Y182.372 E34.60016
G1 X43.564 Y182.029 E34.61212
G1 X43.029 Y181.62 E34.62409
G1 X42.547 Y181.15 E34.63606
G1 X42.124 Y180.626 E34.64803
G1 X41.765 Y180.056 E34.66001
G1 X41.477 Y179.448 E34.67197
G1 X41.263 Y178.81 E34.68393
G1 X41.127 Y178.15 E34.69591
G1 X41.067 Y177.33 E34.71052
G1 X41.067 Y37.67 E37.19311
G1 X41.107 Y36.998 E37.20508
G1 X41.226 Y36.335 E37.21705
G1 X41.423 Y35.692 E37.22901
G1 X41.695 Y35.076 E37.24098
G1 X42.038 Y34.497 E37.25294
G1 X42.447 Y33.962 E37.26491
G1 X42.917 Y33.48 E37.27688
G1 X43.441 Y33.057 E37.28885
G1 X44.011 Y32.698 E37.30082
G1 X44.619 Y32.41 E37.31278
G1 X45.257 Y32.196 E37.32475
G1 X45.917 Y32.06 E37.33672
G1 X46.737 Y32 E37.35134
G1 X186.397 Y32 E39.83393
G1 X187.069 Y32.04 E39.8459
G1 X187.732 Y32.159 E39.85787
G1 X188.375 Y32.356 E39.86983
G1 X188.991 Y32.628 E39.8818
G1 X189.57 Y32.971 E39.89376
G1 X190.105 Y33.38 E39.90573
G1 X190.587 Y33.85 E39.9177
G1 X191.01 Y34.374 E39.92967
G1 X191.369 Y34.944 E39.94164
G1 X191.657 Y35.552 E39.9536
G1 X191.871 Y36.19 E39.96556
G1 X192.007 Y36.85 E39.97754
G1 X192.067 Y37.67 E39.99216
G1 X192.067 Y177.33 E42.47475
G1 X192.027 Y178.002 E42.48672
G1 X191.908 Y178.665 E42.49869
G1 X191.711 Y179.308 E42.51065
G1 X191.439 Y179.924 E42.52262
G1 X191.096 Y180.503 E42.53458
M204 S625
M205 X30 Y30
G0 F4285.7 X190.678 Y180.369
M204 S500
M205 X20 Y20
G1 F1200 X190.271 Y180.873 E42.54609
G1 X189.805 Y181.323 E42.55761
G1 X189.288 Y181.712 E42.56911
G1 X188.726 Y182.035 E42.58063
G1 X188.129 Y182.286 E42.59215
G1 X187.505 Y182.462 E42.60367
G1 X186.865 Y182.559 E42.61518
G1 X186.397 Y182.58 E42.6235
G1 X46.737 Y182.58 E45.1061
G1 X46.09 Y182.54 E45.11762
G1 X45.454 Y182.421 E45.12912
G1 X44.837 Y182.224 E45.14064
G1 X44.248 Y181.953 E45.15216
G1 X43.698 Y181.611 E45.16367
G1 X43.194 Y181.204 E45.17519
G1 X42.744 Y180.738 E45.1867
G1 X42.355 Y180.221 E45.19821
G1 X42.032 Y179.659 E45.20973
G1 X41.781 Y179.062 E45.22124
G1 X41.605 Y178.438 E45.23276
G1 X41.508 Y177.798 E45.24427
G1 X41.487 Y177.33 E45.2526
G1 X41.487 Y37.67 E47.73519
G1 X41.527 Y37.023 E47.74671
G1 X41.646 Y36.387 E47.75822
G1 X41.843 Y35.77 E47.76973
G1 X42.114 Y35.181 E47.78125
G1 X42.456 Y34.631 E47.79277
G1 X42.863 Y34.127 E47.80428
G1 X43.329 Y33.677 E47.8158
G1 X43.846 Y33.288 E47.8273
G1 X44.408 Y32.965 E47.83882
G1 X45.005 Y32.714 E47.85033
G1 X45.629 Y32.538 E47.86186
G1 X46.269 Y32.441 E47.87337
G1 X46.737 Y32.42 E47.88169
G1 X186.397 Y32.42 E50.36429
G1 X187.044 Y32.46 E50.37581
G1 X187.68 Y32.579 E50.38731
G1 X188.297 Y32.776 E50.39882
G1 X188.886 Y33.047 E50.41035
G1 X189.436 Y33.389 E50.42186
G1 X189.94 Y33.796 E50.43338
G1 X190.39 Y34.262 E50.44489
G1 X190.779 Y34.779 E50.45639
G1 X191.102 Y35.341 E50.46792
G1 X191.353 Y35.938 E50.47943
G1 X191.529 Y36.562 E50.49095
G1 X191.626 Y37.202 E50.50246
G1 X191.647 Y37.67 E50.51079
G1 X191.647 Y177.33 E52.99338
G1 X191.607 Y177.977 E53.0049
G1 X191.488 Y178.613 E53.0164
G1 X191.291 Y179.23 E53.02792
G1 X191.02 Y179.819 E53.03944
G1 X190.678 Y180.369 E53.05096
M204 S625
M205 X30 Y30
G0 F4285.7 X190.261 Y180.228
M204 S500
M205 X20 Y20
G1 F1200 X189.857 Y180.7 E53.062
G1 X189.395 Y181.117 E53.07306
G1 X188.885 Y181.47 E53.08409
G1 X188.333 Y181.755 E53.09513
G1 X187.748 Y181.967 E53.10619
G1 X187.142 Y182.102 E53.11723
G1 X186.397 Y182.16 E53.13051
G1 X46.737 Y182.16 E55.6131
G1 X46.117 Y182.12 E55.62415
G1 X45.507 Y182.001 E55.6352
G1 X44.918 Y181.804 E55.64624
G1 X44.359 Y181.534 E55.65727
G1 X43.839 Y181.194 E55.66832
G1 X43.367 Y180.79 E55.67936
G1 X42.95 Y180.328 E55.69042
G1 X42.597 Y179.818 E55.70145
G1 X42.312 Y179.266 E55.71249
G1 X42.1 Y178.681 E55.72355
G1 X41.965 Y178.075 E55.73459
G1 X41.907 Y177.33 E55.74787
G1 X41.907 Y37.67 E58.23046
G1 X41.947 Y37.05 E58.24151
G1 X42.066 Y36.44 E58.25256
G1 X42.263 Y35.851 E58.2636
G1 X42.533 Y35.292 E58.27463
G1 X42.873 Y34.772 E58.28568
G1 X43.277 Y34.3 E58.29672
G1 X43.739 Y33.883 E58.30778
G1 X44.249 Y33.53 E58.31881
G1 X44.801 Y33.245 E58.32985
G1 X45.386 Y33.033 E58.34091
G1 X45.992 Y32.898 E58.35195
G1 X46.737 Y32.84 E58.36523
G1 X186.397 Y32.84 E60.84782
G1 X187.017 Y32.88 E60.85887
G1 X187.627 Y32.999 E60.86992
G1 X188.216 Y33.196 E60.88096
G1 X188.775 Y33.466 E60.89199
G1 X189.295 Y33.806 E60.90304
G1 X189.767 Y34.21 E60.91408
G1 X190.184 Y34.672 E60.92514
G1 X190.537 Y35.182 E60.93617
G1 X190.822 Y35.734 E60.94721
G1 X191.034 Y36.319 E60.95827
G1 X191.169 Y36.925 E60.96931
G1 X191.227 Y37.67 E60.98259
G1 X191.227 Y177.33 E63.46518
G1 X191.187 Y177.95 E63.47623
G1 X191.068 Y178.56 E63.48728
G1 X190.871 Y179.149 E63.49832
G1 X190.601 Y179.708 E63.50935
G1 X190.261 Y180.228 E63.5204
M204 S625
M205 X30 Y30
G0 F4285.7 X189.844 Y180.081
M204 S500
M205 X20 Y20
G1 F1200 X189.443 Y180.519 E63.53095
G1 X188.987 Y180.899 E63.5415
G1 X188.484 Y181.215 E63.55206
G1 X187.944 Y181.46 E63.5626
G1 X187.375 Y181.63 E63.57316
G1 X186.789 Y181.723 E63.58371
G1 X186.397 Y181.74 E63.59068
G1 X46.737 Y181.74 E66.07327
G1 X46.145 Y181.7 E66.08382
G1 X45.563 Y181.581 E66.09438
G1 X45.003 Y181.385 E66.10493
G1 X44.474 Y181.115 E66.11548
G1 X43.986 Y180.777 E66.12604
G1 X43.548 Y180.376 E66.13659
G1 X43.168 Y179.92 E66.14714
G1 X42.852 Y179.417 E66.1577
G1 X42.607 Y178.877 E66.16824
G1 X42.437 Y178.308 E66.1788
G1 X42.344 Y177.722 E66.18935
G1 X42.327 Y177.33 E66.19632
G1 X42.327 Y37.67 E68.67892
G1 X42.367 Y37.078 E68.68946
G1 X42.486 Y36.496 E68.70002
G1 X42.682 Y35.936 E68.71057
G1 X42.952 Y35.407 E68.72113
G1 X43.29 Y34.919 E68.73168
G1 X43.691 Y34.481 E68.74224
G1 X44.147 Y34.101 E68.75279
G1 X44.65 Y33.785 E68.76335
G1 X45.19 Y33.54 E68.77389
G1 X45.759 Y33.37 E68.78444
G1 X46.345 Y33.277 E68.79499
G1 X46.737 Y33.26 E68.80196
G1 X186.397 Y33.26 E71.28456
G1 X186.989 Y33.3 E71.29511
G1 X187.571 Y33.419 E71.30566
G1 X188.131 Y33.615 E71.31621
G1 X188.66 Y33.885 E71.32677
G1 X189.148 Y34.223 E71.33732
G1 X189.586 Y34.624 E71.34788
G1 X189.966 Y35.08 E71.35843
G1 X190.282 Y35.583 E71.36899
G1 X190.527 Y36.123 E71.37953
G1 X190.697 Y36.692 E71.39009
G1 X190.79 Y37.278 E71.40063
G1 X190.807 Y37.67 E71.40761
G1 X190.807 Y177.33 E73.8902
G1 X190.767 Y177.922 E73.90075
G1 X190.648 Y178.504 E73.91131
G1 X190.452 Y179.064 E73.92185
G1 X190.182 Y179.593 E73.93241
G1 X189.844 Y180.081 E73.94296
M204 S625
M205 X30 Y30
G0 F4285.7 X189.428 Y179.925
M204 S500
M205 X20 Y20
G1 F1200 X189.031 Y180.327 E73.95301
G1 X188.582 Y180.669 E73.96304
G1 X188.088 Y180.944 E73.97309
G1 X187.561 Y181.146 E73.98312
G1 X187.011 Y181.272 E73.99315
G1 X186.397 Y181.32 E74.0041
G1 X46.737 Y181.32 E76.48669
G1 X46.174 Y181.28 E76.49673
G1 X45.622 Y181.161 E76.50676
G1 X45.092 Y180.965 E76.51681
G1 X44.596 Y180.697 E76.52683
G1 X44.142 Y180.361 E76.53687
G1 X43.74 Y179.964 E76.54691
G1 X43.398 Y179.515 E76.55695
G1 X43.123 Y179.021 E76.567
G1 X42.921 Y178.494 E76.57703
G1 X42.795 Y177.944 E76.58706
G1 X42.747 Y177.33 E76.59801
G1 X42.747 Y37.67 E79.0806
G1 X42.787 Y37.107 E79.09063
G1 X42.906 Y36.555 E79.10067
G1 X43.102 Y36.025 E79.11072
G1 X43.37 Y35.529 E79.12074
G1 X43.706 Y35.075 E79.13078
G1 X44.103 Y34.673 E79.14082
G1 X44.552 Y34.331 E79.15085
G1 X45.046 Y34.056 E79.1609
G1 X45.573 Y33.854 E79.17094
G1 X46.123 Y33.728 E79.18097
G1 X46.737 Y33.68 E79.19191
G1 X186.397 Y33.68 E81.67451
G1 X186.96 Y33.72 E81.68454
G1 X187.512 Y33.839 E81.69458
G1 X188.042 Y34.035 E81.70462
G1 X188.538 Y34.303 E81.71464
G1 X188.992 Y34.639 E81.72468
G1 X189.394 Y35.036 E81.73473
G1 X189.736 Y35.485 E81.74476
G1 X190.011 Y35.979 E81.75481
G1 X190.213 Y36.506 E81.76484
G1 X190.339 Y37.056 E81.77487
G1 X190.387 Y37.67 E81.78582
G1 X190.387 Y177.33 E84.26841
G1 X190.347 Y177.893 E84.27845
G1 X190.228 Y178.445 E84.28849
G1 X190.032 Y178.975 E84.29853
G1 X189.764 Y179.471 E84.30855
G1 X189.428 Y179.925 E84.31859
M204 S625
M205 X30 Y30
G0 F4285.7 X189.346 Y179.343
M204 S500
M205 X20 Y20
G1 F1200 X189.012 Y179.76 E84.32809
G1 X188.621 Y180.123 E84.33757
G1 X188.179 Y180.423 E84.34707
G1 X187.698 Y180.655 E84.35656
G1 X187.187 Y180.811 E84.36606
G1 X186.397 Y180.9 E84.38019
G1 X46.737 Y180.9 E86.86278
G1 X46.204 Y180.86 E86.87228
G1 X45.684 Y180.741 E86.88177
G1 X45.187 Y180.546 E86.89126
G1 X44.724 Y180.279 E86.90076
G1 X44.307 Y179.945 E86.91026
G1 X43.944 Y179.554 E86.91974
G1 X43.644 Y179.112 E86.92924
G1 X43.412 Y178.631 E86.93873
G1 X43.256 Y178.12 E86.94823
G1 X43.167 Y177.33 E86.96236
G1 X43.167 Y37.67 E89.44495
G1 X43.207 Y37.137 E89.45445
G1 X43.326 Y36.617 E89.46393
G1 X43.521 Y36.12 E89.47342
G1 X43.788 Y35.657 E89.48292
G1 X44.122 Y35.24 E89.49242
G1 X44.513 Y34.877 E89.50191
G1 X44.955 Y34.577 E89.5114
G1 X45.436 Y34.345 E89.52089
G1 X45.947 Y34.189 E89.53039
G1 X46.737 Y34.1 E89.54452
G1 X186.397 Y34.1 E92.02712
G1 X186.93 Y34.14 E92.03662
G1 X187.45 Y34.259 E92.0461
G1 X187.947 Y34.454 E92.05559
G1 X188.41 Y34.721 E92.06509
G1 X188.827 Y35.055 E92.07459
G1 X189.19 Y35.446 E92.08407
G1 X189.49 Y35.888 E92.09357
G1 X189.722 Y36.369 E92.10306
G1 X189.878 Y36.88 E92.11256
G1 X189.967 Y37.67 E92.12669
G1 X189.967 Y177.33 E94.60928
G1 X189.927 Y177.863 E94.61878
G1 X189.808 Y178.383 E94.62827
